Default.style/poi_car_wash.svg

<?xml version="1.0" encoding="UTF-8"?>
<svg width="18" height="18" version="1.1" viewBox="0 0 18 18" xmlns="http://www.w3.org/2000/svg">
 <circle cx="9" cy="9" r="8.5" fill="#808080" stroke="white"/>
 <path d="m8.9905 1.1331c-0.030764 0.23842-0.336 1.3393-0.75043 1.9123-0.567 0.78397-1.1307 1.1381-1.1556 2.1273-0.026988 1.0752 0.80873 1.6834 1.9048 1.6834 1.0961 0 1.9247-0.6245 1.9344-1.7 0.009179-1.0157-1.0495-1.7292-1.3029-2.1435-0.35664-0.58299-0.60198-1.6503-0.63025-1.8795z" color="#000000" fill="#ffffff" stroke-linecap="round" stroke-linejoin="round" style="-inkscape-stroke:none;paint-order:fill markers stroke"/>
 <path d="m7.5 11.75c0.14167 0 0.2605-0.048 0.3565-0.144 0.09567-0.0956 0.1435-0.2143 0.1435-0.356 0-0.1416-0.04783-0.2605-0.1435-0.3565-0.096-0.0956-0.21483-0.1435-0.3565-0.1435s-0.26033 0.0479-0.356 0.1435c-0.096 0.096-0.144 0.2149-0.144 0.3565 0 0.1417 0.048 0.2604 0.144 0.356 0.09567 0.096 0.21433 0.144 0.356 0.144zm3 0c0.1417 0 0.2605-0.048 0.3565-0.144 0.0957-0.0956 0.1435-0.2143 0.1435-0.356 0-0.1416-0.0478-0.2605-0.1435-0.3565-0.096-0.0956-0.2148-0.1435-0.3565-0.1435s-0.2603 0.0479-0.356 0.1435c-0.096 0.096-0.144 0.2149-0.144 0.3565 0 0.1417 0.048 0.2604 0.144 0.356 0.0957 0.096 0.2143 0.144 0.356 0.144zm-4.5 2.25c-0.14167 0-0.2605-0.048-0.3565-0.144-0.09567-0.0956-0.1435-0.2143-0.1435-0.356v-3.2l0.825-2.4c0.04167-0.11666 0.11033-0.2125 0.206-0.2875 0.096-0.075 0.20233-0.1125 0.319-0.1125h4.3c0.1167 0 0.223 0.0375 0.319 0.1125 0.0957 0.075 0.1643 0.17084 0.206 0.2875l0.825 2.4v3.2c0 0.1417-0.048 0.2604-0.144 0.356-0.0957 0.096-0.2143 0.144-0.356 0.144s-0.2603-0.048-0.356-0.144c-0.096-0.0956-0.144-0.2143-0.144-0.356v-0.5h-5v0.5c0 0.1417-0.04783 0.2604-0.1435 0.356-0.096 0.096-0.21483 0.144-0.3565 0.144zm0.825-4.5h4.35l-0.35-1h-3.65l-0.35 1z" fill="white"/>
</svg>

<svg width="18" height="18" viewBox="0 0 18 18" fill="none" xmlns="http://www.w3.org/2000/svg">
<circle cx="9" cy="9" r="8.5" fill="#808080" stroke="white"/>
<path d="M7.5 11.75C7.64167 11.75 7.7605 11.702 7.8565 11.606C7.95217 11.5103 8 11.3917 8 11.25C8 11.1083 7.95217 10.9895 7.8565 10.8935C7.7605 10.7978 7.64167 10.75 7.5 10.75C7.35833 10.75 7.23967 10.7978 7.144 10.8935C7.048 10.9895 7 11.1083 7 11.25C7 11.3917 7.048 11.5103 7.144 11.606C7.23967 11.702 7.35833 11.75 7.5 11.75ZM10.5 11.75C10.6417 11.75 10.7605 11.702 10.8565 11.606C10.9522 11.5103 11 11.3917 11 11.25C11 11.1083 10.9522 10.9895 10.8565 10.8935C10.7605 10.7978 10.6417 10.75 10.5 10.75C10.3583 10.75 10.2397 10.7978 10.144 10.8935C10.048 10.9895 10 11.1083 10 11.25C10 11.3917 10.048 11.5103 10.144 11.606C10.2397 11.702 10.3583 11.75 10.5 11.75ZM6 14C5.85833 14 5.7395 13.952 5.6435 13.856C5.54783 13.7603 5.5 13.6417 5.5 13.5V10.3L6.325 7.9C6.36667 7.78333 6.43533 7.6875 6.531 7.6125C6.627 7.5375 6.73333 7.5 6.85 7.5H11.15C11.2667 7.5 11.373 7.5375 11.469 7.6125C11.5647 7.6875 11.6333 7.78333 11.675 7.9L12.5 10.3V13.5C12.5 13.6417 12.452 13.7603 12.356 13.856C12.2603 13.952 12.1417 14 12 14C11.8583 14 11.7397 13.952 11.644 13.856C11.548 13.7603 11.5 13.6417 11.5 13.5V13H6.5V13.5C6.5 13.6417 6.45217 13.7603 6.3565 13.856C6.2605 13.952 6.14167 14 6 14ZM6.825 9.5H11.175L10.825 8.5H7.175L6.825 9.5Z" fill="white"/>
<path d="M6.12704 3.5L7.02704 4.7C7.58327 5.44164 7.05409 6.5 6.12704 6.5C5.19999 6.5 4.67081 5.44164 5.22704 4.7L6.12704 3.5Z" fill="white"/>
<path d="M9 3.5L9.9 4.7C10.4562 5.44164 9.92705 6.5 9 6.5C8.07295 6.5 7.54377 5.44164 8.1 4.7L9 3.5Z" fill="white"/>
<path d="M11.873 3.5L12.773 4.7C13.3292 5.44164 12.8 6.5 11.873 6.5C10.9459 6.5 10.4167 5.44164 10.973 4.7L11.873 3.5Z" fill="white"/>
</svg>
